outputs/icons/action/upload_round.svg

<svg width="1200" height="1200" viewBox="0 0 1200 1200" fill="none" xmlns="http://www.w3.org/2000/svg"><g clip-path="url(#clip0_755_1822)"><path d="M500 800.01H700C727.5 800.01 750 777.51 750 750.01V500.01H829.5C874 500.01 896.5 446.011 865 414.51L635.5 185.011C616 165.511 584.5 165.511 565 185.011L335.5 414.51C304 446.011 326 500.01 370.5 500.01H450V750.01C450 777.51 472.5 800.01 500 800.01ZM300 900.01H900C927.5 900.01 950 922.51 950 950.01C950 977.51 927.5 1000.01 900 1000.01H300C272.5 1000.01 250 977.51 250 950.01C250 922.51 272.5 900.01 300 900.01Z" fill="black"/></g><defs><clipPath id="clip0_755_1822"><path width="24" fill="white" d="M0 0H1200V1200H0V0z"/></clipPath></defs></svg>

<svg xmlns="http://www.w3.org/2000/svg" width="1200" height="1200" fill="none"><g clip-path="url(#a)"><path fill="#000" d="M500 800.01h200c27.5 0 50-22.5 50-50v-250h79.5c44.5 0 67-53.999 35.5-85.5L635.5 185.011c-19.5-19.5-51-19.5-70.5 0L335.5 414.51c-31.5 31.501-9.5 85.5 35 85.5H450v250c0 27.5 22.5 50 50 50m-200 100h600c27.5 0 50 22.5 50 50s-22.5 50-50 50H300c-27.5 0-50-22.5-50-50s22.5-50 50-50"/></g><defs><clipPath id="a"><path fill="#fff" d="M0 0h1200v1200H0z"/></clipPath></defs></svg>
